X: 35495
T: Rubber Band, The
R: slide
M: 12/8
K: Dmajor
D2E|:FGF E2D F3 F2A|BdB A2B d3 d2A|
[1 def d2B A3 AFA|BAF A2F E3 EDE:|
[2 def d2B ABd AFE|DEF E2D (D3 D)FG||
|:A2F A2F AFE D3|A2F B2d AGF E3|
A2F A2F AFE DFA|dcB AFE F2E D3:|

